X:462
T:Pilgrim,The. (p).1701.PLFD.462
M:6/8
L:1/8
Q:3/8=120
S:Playford, Dancing Master,11th Ed.,1701.
O:England
N:Is this the first appearance of 6/8 as a time sig?.
Z:Chris Partington.
K:D
A|FAFD2F|A2de2e|fgf fga|e3A2A|FAFD2F|
A2dd2e|fgf fge|d3-d2:||:e|ece eae|eAe eae|
fgaa2^g|a3-a2a|aff fdd|dAA AFA|def f>ed|d3-d2:|
